X: 223
T: The Bellisle March
O: Wm Clarke of Feltwell
Z: Anahata <anahata@treewind.co.uk>
M: 4/4
L: 1/8
K: C
G| c2 c>e d2 d>f | e2 c'b a2g2 | e2 (3gec d2 (3gec | c2c2c2:|
|: G2 | gagf e2 e2 | fgfe {e}d4!tr! | gagf efef | gagf/e/ {e}d2!tr! G |
c2ce d2df | e2c'ag2 {a}g | e2 (3gec d2 (3fdB |c2 c2 c2 :|

